X:4813
T:Old Road to Garry, The
O:england
C:Paddy O'Brien (Nenagh)
R:reel
H:Originally in C, #595
M:C|
K:D
AF~F2 ABdf|edBA BedB|AF~F2 ABdf|g2ag fddB|
AF~F2 ABdf|edBA (3Bcd ef|gfge fbaf|efde fdd2:|
|:a2fd adfd|Beed efgb|a2fd Adfd|gbag fdd2|
a2fd adfd|Beed efga|bgaf efdB|ABde fdef:|
|:d3A BAFA|Beed egfe|dF~F2 ABdf|gbag fdef|
dcdA BAFA|Beed cABc|dfaf efdB|ABde fdd2:|
|:faag fefa|bgaf edBA|fa~a2 fedB|ABde fd~d2|
faag fefa|bgaf edef|~g3e f2af|efde fdd2:|


